icons/Meteor, Shooting Star--1504927.svg

<svg enable-background="new 0 0 16 16" viewBox="0 0 16 16" xmlns="http://www.w3.org/2000/svg"><path d="m4.5 16c-2.481 0-4.5-2.019-4.5-4.5s2.019-4.5 4.5-4.5 4.5 2.019 4.5 4.5-2.019 4.5-4.5 4.5zm0-8c-1.93 0-3.5 1.57-3.5 3.5s1.57 3.5 3.5 3.5 3.5-1.57 3.5-3.5-1.57-3.5-3.5-3.5z"/><path d="m7.328 14.828c-.128 0-.256-.049-.354-.146-.195-.195-.195-.512 0-.707l5.003-5.002-1.765.196c-.191.019-.375-.067-.477-.228-.101-.161-.104-.365-.006-.528l3.357-5.544-4.805 2.703c-.17.097-.38.083-.539-.031-.158-.115-.235-.311-.196-.503l.383-1.916-5.904 5.903c-.195.195-.512.195-.707 0s-.195-.512 0-.707l7.072-7.07c.155-.156.393-.191.59-.087.194.104.297.323.254.539l-.494 2.467 5.515-3.102c.198-.112.446-.076.604.088.158.163.186.412.068.606l-3.817 6.303 2.173-.241c.212-.019.415.089.506.28.093.191.054.42-.097.57l-6.011 6.01c-.097.098-.225.147-.353.147z"/></svg>

<?xml version="1.0" encoding="utf-8"?>
<!DOCTYPE svg PUBLIC "-//W3C//DTD SVG 1.0//EN" "http://www.w3.org/TR/2001/REC-SVG-20010904/DTD/svg10.dtd">
<svg    fill="#000000" xmlns="http://www.w3.org/2000/svg" xmlns:xlink="http://www.w3.org/1999/xlink" version="1.1" x="0px" y="0px" viewBox="0 0 16 16" style="enable-background:new 0 0 16 16;" xml:space="preserve"><g><path d="M4.5,16C2.019,16,0,13.981,0,11.5S2.019,7,4.5,7S9,9.019,9,11.5S6.981,16,4.5,16z M4.5,8C2.57,8,1,9.57,1,11.5   S2.57,15,4.5,15S8,13.43,8,11.5S6.43,8,4.5,8z"></path><path d="M7.328,14.828c-0.128,0-0.256-0.049-0.354-0.146c-0.195-0.195-0.195-0.512,0-0.707l5.003-5.002l-1.765,0.196   c-0.191,0.019-0.375-0.067-0.477-0.228C9.634,8.78,9.631,8.576,9.729,8.413l3.357-5.544L8.281,5.572   c-0.17,0.097-0.38,0.083-0.539-0.031C7.584,5.426,7.507,5.23,7.546,5.038l0.383-1.916L2.025,9.025   c-0.195,0.195-0.512,0.195-0.707,0s-0.195-0.512,0-0.707L8.39,1.248c0.155-0.156,0.393-0.191,0.59-0.087   c0.194,0.104,0.297,0.323,0.254,0.539L8.74,4.167l5.515-3.102c0.198-0.112,0.446-0.076,0.604,0.088   c0.158,0.163,0.186,0.412,0.068,0.606L11.11,8.062l2.173-0.241c0.212-0.019,0.415,0.089,0.506,0.28   c0.093,0.191,0.054,0.42-0.097,0.57l-6.011,6.01C7.584,14.779,7.456,14.828,7.328,14.828z"></path></g></svg>
